X: 315
T:Fors seulement I
N: Derived from Jos2710-Fors_seulement_I.krn
C: Josquin des Prez
%%abc-version 2.0
%%abcx-abcm2ps-target-version 5.9.1 (29 Sep 2008)
%%abc-creator hum2abc beta
%%abcx-conversion-date 2019/02/12 16:15:54
%%abc-edited-by Jesse Rodin
%%abc-edited-by Victoria Chang 2012/03/27
%%abcx-initial-encoding-date 2012/03/27/
%%humdrum-veritas 451551566
%%humdrum-veritas-data 2746715810
%%linebreak <none>
%%barnumbers 0
L: 1/4
M: 2/1
Q: 1/2=120
V: 1 clef=treble
V: 2 clef=treble
V: 3 clef=treble-8
K: C
[V:1] z8 | 
[V:2] A,8 | 
[V:3] A8 | 
[V:1] z8 | 
[V:2] A,3B,CA,D2- | 
[V:3] A3GF2ED | 
[V:1] z8 | 
[V:2] D2^CB,C3D | 
[V:3] F2G2E4 | 
[V:1] A8 | 
[V:2] D8- | 
[V:3] D8- | 
[V:1] A3BcAd2- | 
[V:2] D4z2D2 | 
[V:3] D4z4 | 
[V:1] d2^cBc3d | 
[V:2] E4E4 | 
[V:3] z4A4 | 
[V:1] d8 | 
[V:2] F6ED | 
[V:3] d6cB | 
[V:1] z4e4 | 
[V:2] F2E3DCB, | 
[V:3] d2c3BA2- | 
[V:1] e4e4 | 
[V:2] A,2D4^C2 | 
[V:3] A2GFE4 | 
[V:1] f4e2f2- | 
[V:2] D4A4 | 
[V:3] D2d2c2d2- | 
[V:1] f2edc3d | 
[V:2] A4A4 | 
[V:3] d2cBA3B | 
[V:1] efe3dcB | 
[V:2] A4G4 | 
[V:3] cdc3BAG | 
[V:1] A8 | 
[V:2] c6BA | 
[V:3] F8 | 
[V:1] e4d2f2- | 
[V:2] G3ABGA2- | 
[V:3] c3B/A/G2F2 | 
[V:1] f2e2d4 | 
[V:2] A2G2F4 | 
[V:3] D2E2F2G2 | 
[V:1] c3B/A/c2B2 | 
[V:2] E2A4G2 | 
[V:3] A3GAFG2 | 
[V:1] A2d4^c2 | 
[V:2] F3E/D/E4 | 
[V:3] A2_B2G2A2 | 
[V:1] d4z4 | 
[V:2] D8 | 
[V:3] F2G2D4 | 
[V:1] e8 | 
[V:2] z8 | 
[V:3] z4A4 | 
[V:1] e4e4 | 
[V:2] A8 | 
[V:3] A4A4 | 
[V:1] f6ed | 
[V:2] A4A4 | 
[V:3] d6cB | 
[V:1] e8 | 
[V:2] c6BA | 
[V:3] A4A4 | 
[V:1] z4e4- | 
[V:2] G8 | 
[V:3] c6BA | 
[V:1] e2dcd2e2 | 
[V:2] z4G4 | 
[V:3] G3AB2c2 | 
[V:1] f4e2d2- | 
[V:2] A3Bc2B2- | 
[V:3] F3GA2B2 | 
[V:1] dcBAB4 | 
[V:2] BAA4^G2 | 
[V:3] G2A2e3d | 
[V:1] A8 | 
[V:2] A6GF | 
[V:3] cBd2A2d2 | 
[V:1] z4c4 | 
[V:2] E8 | 
[V:3] c3BAGA2- | 
[V:1] c4c4 | 
[V:2] E4E4 | 
[V:3] A2GFE2A2 | 
[V:1] d4f4 | 
[V:2] F6ED | 
[V:3] D8 | 
[V:1] e6dc | 
[V:2] C8 | 
[V:3] z4A4 | 
[V:1] B2A4e2- | 
[V:2] D3EF2G2- | 
[V:3] G2d4c2 | 
[V:1] e2d4^c2 | 
[V:2] GFEDE4 | 
[V:3] B4A4 | 
[V:1] d8 | 
[V:2] z2D3EFG | 
[V:3] D8 | 
[V:1] f4e2f2- | 
[V:2] A3Bc2B2- | 
[V:3] d4c2d2- | 
[V:1] fedcd4 | 
[V:2] BAA4^G2 | 
[V:3] dcBAB4 | 
[V:1] c8 | 
[V:2] A4z4 | 
[V:3] A8 | 
[V:1] z2F3GAB | 
[V:2] A8 | 
[V:3] z4z2F2- | 
[V:1] c3decf2- | 
[V:2] A4A4 | 
[V:3] FGABc2A2 | 
[V:1] f2e2f4- | 
[V:2] G4F4 | 
[V:3] B2c2d3c | 
[V:1] f2edc4 | 
[V:2] F4A3B | 
[V:3] def4ed | 
[V:1] z4z2c2 | 
[V:2] c2B3AA2- | 
[V:3] c2d4c2 | 
[V:1] d3ef2e2- | 
[V:2] A2G2A3G | 
[V:3] B4A4 | 
[V:1] edd4^c2 | 
[V:2] F2EDE4 | 
[V:3] B4A4 | 
[V:1] d8 | 
[V:2] D4z4 | 
[V:3] z4d4- | 
[V:1] z4c4 | 
[V:2] A8 | 
[V:3] d2cBA4 | 
[V:1] d4d4 | 
[V:2] B4B4 | 
[V:3] G8 | 
[V:1] e3dc2B2 | 
[V:2] c3BA2G2 | 
[V:3] c4z2e2 | 
[V:1] A4z2e2 | 
[V:2] A3GF2E2 | 
[V:3] f3ed2c2 | 
[V:1] f3ed2c2 | 
[V:2] D4z2A2 | 
[V:3] d3cB2A2 | 
[V:1] d3cB2A2 | 
[V:2] B3AG2F2 | 
[V:3] G4z2f2 | 
[V:1] G4z2d2 | 
[V:2] E3DC2B,2 | 
[V:3] g3fe2d2 | 
[V:1] e3dc2B2 | 
[V:2] A,4z2E2 | 
[V:3] c3BA2G2 | 
[V:1] A3GF2E2 | 
[V:2] F3ED2^C2 | 
[V:3] F2DEFGA2 | 
[V:1] DEFGABcd | 
[V:2] D3EFGA2- | 
[V:3] D2d4cB | 
[V:1] efg3fde | 
[V:2] A2GFG2_B2 | 
[V:3] A2B2G4 | 
[V:1] f2e3dcB | 
[V:2] A4G2A2- | 
[V:3] d2c3BAG | 
[V:1] A2d4^c2 | 
[V:2] A2GFE4 | 
[V:3] F2G2A4 | 
[V:1] d8 |]  
[V:2] D8 |]  
[V:3] D8 |]  



